X: 1
T: Flatley's
M: 4/4
L: 1/8
R: reel
K: Dmaj
dAFA BAFA | dAfA BAFA | EFGA BAGF | EFGA BABc | 
dAFA BAFA | dAfA BAFA | EFGA BcdB | AFEF D4 :|
fA A2 BAfA | A2 FA dA A2 | gB B2 B2 gB | B2 gB gB B2 | 
fA A2 BAfA | A2 dA fAdA | BAGF GBdB | AFEF D4 :|
